X:1
T:I have been young - Byrd
T:#
%%score { 1 | 2 } 3
L:1/8
Q:1/4=132
M:4/4
K:Eb
V:1 treble nm="Alto I" snm="A"
V:2 treble 
V:3 bass nm="Bass" snm="B"
V:1
"^I have been young""^Psalm 37:25" C4 E4- | E4 F4 | (GABA G4) | z4 z2 A2 | %4
w: I have|* been|young, * * * *|but|
"^William Byrd\n(1543-1623)" G8 |[M:4/4] F4 E4 | z2 E2 D4 | C4 B,4 | C2 B,4 F,2 | %9
w: now|am old,|but now|am old,|but now am,|
 A,2 G,3 (F,G,A,) | B,4 z2 B,2 | D3 E F2 G2 | F4 B,2 C2- | CB,CD E4 | B,4 z2 A,2 | E3 F G2 A2 | %16
w: but now am * *|old, yet|did I nev- er|see the right\-|* e- ous for- sak-|en, yet|did I nev- er|
 G4 z2 EF | (GAB)A G4 | z8 | F2 G3 FGA | B2 G2 D2 E2- | EDEC B,2 D2 | E2 (G4 FE) | D4 z2 E2- | %24
w: see, did I|nev\- * * er see||the right- e- ous for-|sak- en, the right\-|* e- ous for- sak- en,|for- sak\- * *|en, nor|
 E2 D2 B,2 D2- | DC (C4 =B,2) | C2 c4 B2 | G4 z4 | z8 | z2 A4 G2 | E2 G3 F F2- | (F2 =E2) F4 | %32
w: * his seed beg\-|* ging their *|bread, nor his|seed,||nor his|seed beg- ging their|* * bread,|
 (C3 B,) G,4 | B,6 F,2 | A,2 G,2 G,4 | z2 A4 G2 | E2 G4[Q:1/4=130] F2[Q:1/4=131] | %37
w: nor * his|seed beg-|ging their bread,|nor his|seed beg- ging|
[Q:1/4=129] E8[Q:1/4=128][Q:1/4=128][Q:1/4=127][Q:1/4=126][Q:1/4=126][Q:1/4=125][Q:1/4=125] | %38
w: their|
[Q:1/4=123] D6 F2[Q:1/4=121] |[Q:1/4=118] =E8- |[Q:1/4=114] E8 |] %41
w: bread, their|bread.||
V:2
 z4 z2 C2- | C2 E4 D2 | (EFGF E4) | A2 G4 F2 | E4 z2 E2 |[M:4/4] D4 C4 | B,4 z4 | z2 A2 G4- | %8
w: I|* have been|young, * * * *|but now am|old, but|now am|old,|but now|
 G4 F4 | E4 z2 C2 | D3 E F2 G2 | F4 z2 B,2 | D3 E F2 A2 | G4 z2 CD | E2 D2 C4 | G,2 C3 B,CD | %16
w: * am|old, yet|did I nev- er|see, yet|did I nev- er|see, did I|nev- er see|the right- e- ous for-|
 E2 B,2 z4 | z2 E,2 B,3 C | D2 E2 D4 | D2 E2 D4 | z4 F2 G2- | GFGA B4 | G2 B,2 (CEDC) | %23
w: sak- en,|yet did I|nev- er see,|nev- er see,|the right\-|* e- ous for- sak-|en, for- sak\- * * *|
 =B,4 z2 G2- | G2 F2 D2 F2- | F2 E2 D4 | C4 E4- | E2 D2 B,2 D2- | DC (C4 =B,2) | C2 c4 B2 | %30
w: en, nor|* his seed beg\-|* ging their|bread, nor|* his seed beg\-|* ging their *|bread, nor his|
 G2 B4 A2 | G4 F2 A2- | A2 G2 E2 G2- | GF F2 D2 F2- | F2 E2 D4 | C4 z2 E2- | E2 D2 B,2 D2- | %37
w: seed beg- ging|their bread, nor|* his seed beg\-|* ging their bread, beg\-|* ging their|bread, nor|* his seed beg\-|
 D2 C2 (C4- | C2 =B,=A, B,4) | C8- | C8 |] %41
w: * ging their||bread.||
V:3
 z8 | z8 | z4 z2 C,2- | C,2 E,4 D,2 | (E,F,G,F, E,4) |[M:4/4] z4 z2 A,2 | G,4 F,4 | E,8 | %8
w: ||I|* have been|young, * * * *|but|now am|old,|
 z2 E,2 D,4 | C,8 | B,,8- | B,,8 | z4 z2 A,,2 | E,3 F, G,2 A,2 | G,4 A,2 F,2 | E,4 z2 F,2 | %16
w: but now|am|old,||yet|did I nev- er|see, nev- er|see, yet|
 E,3 F, G,2 A,2 | G,4 E,2 G,2- | G,F,G,A, B,2 B,,2 | z2 E,2 B,3 C | D2 E2 B,4 | z4 z2 B,,2 | %22
w: did I ne- ver|see, the right\-|* e- ous for- sak- en,|yet did I|nev- er see,|the|
 E,3 D, E,2 F,2 | G,4 G,,4 | z8 | z8 | A,6 G,2 | E,2 G,4 F,2 | (E,4 D,4) | C,4 E,4- | E,2 E,2 F,4 | %31
w: right- e- ous for-|sak- en,|||nor his|seed beg- ging|their *|bread, beg\-|* ging their|
 C,4 z4 | z4 z2 E,2- | E,2 D,2 B,,2 D,2- | D,C, (C,4 =B,,2) | C,4 C,4- | C,2 B,,2 G,,2 B,,2 | %37
w: bread,|nor|* his seed beg\-|* ging their *|bread, nor|* his seed beg-|
 (C,B,,C,D,) (E,D,E,) (F, | G,4) G,,4 | C,8- | C,8 |] %41
w: ging * * * their * * bread,|* their|bread.||

